!!!COM:	Agricola, Alexander
!!!CDT:	~1446-1506/08/15
!!!OPR:	Missa In myne zin
!!!ONM:	1
!!!ONB: First section (no Kyrie section)
!!!OTL:	Gloria
!!!AGN:	Mass; Gloria
!!!SCT:	Agr1001b
!!!SCA:	Agr1001b
!!!voices:	4
!!!voices-OPR:	4
**kern	**kern	**kern	**kern
*staff4	*staff3	*staff2	*staff1
*Ivox	*Ivox	*Ivox	*Ivox
*I"Bassus	*I"Tenor	*I"Contratenor	*I"Superius
*I'B	*I'T	*I'Ct	*I'S
*>[A,B,C,D,E]	*>[A,B,C,D,E]	*>[A,B,C,D,E]	*>[A,B,C,D,E]
*>A	*>A	*>A	*>A
*clefF4	*clefGv2	*clefGv2	*clefG2
*k[b-]	*k[]	*k[]	*k[]
*M3/1	*M3/1	*M3/1	*M3/1
*met(O)	*met(O)	*met(O)	*met(O)
!!incipit: 3
!!section: Et in terra pax
!!!OMD: Et in terra pax
=1-	=1-	=1-	=1-
0D	0.r	0D	[0.d
1F	.	1A	.
=2	=2	=2	=2
1G	0.r	1B	1d]
1F	.	2.c	0a
.	.	8BL	.
.	.	8cJ	.
1F	.	4d	.
.	.	2c	.
.	.	8BL	.
.	.	8AJ	.
=3	=3	=3	=3
1E	0.r	2G	1b
.	.	2g	.
2r	.	2f	[0cc
2A	.	2.e	.
2.A	.	.	.
.	.	4d	.
.	.	4c	.
4G	.	4B	.
=4	=4	=4	=4
2F	0.r	2A	1cc]
2E	.	2G	.
0D	.	2A	1dd
.	.	2d	.
.	.	2.d	2r
.	.	.	2dd
.	.	4c	.
=5	=5	=5	=5
0r	2r	2.B	2.dd
.	2d	.	.
.	.	4A	4cc
.	2.d	2G	2b
.	.	2F	2a
.	4c	.	.
2r	2B	4r	2g
.	.	2G	.
[2AA	[2A	.	2a
.	.	8FL	.
.	.	8EJ	.
=6	=6	=6	=6
2AA]	2A]	2F	2cc
2E	2G	2G	2.b
2D	1A	2F	.
.	.	.	4a
2F	.	2A	1a
1E	1B	2.G	.
.	.	.	2g#i
.	.	8FL	.
.	.	8EJ	.
=7	=7	=7	=7
0AA	1A	1.E	[0.a
.	2r	.	.
.	2A	2F	.
1AA	2c	1E	.
.	2c	.	.
=8	=8	=8	=8
2r	2.d	1D	0a]
2D	.	.	.
.	8cL	.	.
.	8BJ	.	.
2F	2A	2r	.
2F	2A	2A	.
2.G	1G	2B	1r
.	.	4.B	.
8FL	.	.	.
8EJ	.	8A	.
=9	=9	=9	=9
4.D	2r	4B	0.r
.	.	4c	.
8C	.	.	.
2D	2d	8BL	.
.	.	8AJ	.
.	.	4B	.
1C	2.e	2.c	.
.	8dL	8BL	.
.	8cJ	8AJ	.
2r	2B	2G	.
2G	2B	2E	.
=10	=10	=10	=10
2.A	2A	2.F	0.r
.	2.c	.	.
8GL	.	8EL	.
8FJ	.	8DJ	.
2E	.	2C	.
.	8BL	.	.
.	8AJ	.	.
2E	4G	2r	.
.	4c	.	.
4D	4B	1r	.
4C	2A	.	.
2BB-	.	.	.
.	4G	.	.
=11	=11	=11	=11
2AA	4A	0.r	0.r
.	4c	.	.
2D	4B	.	.
.	2A	.	.
2r	.	.	.
.	4G	.	.
2D	4F	.	.
.	8EL	.	.
.	8DJ	.	.
2E	2C	.	.
2F	2r	.	.
=12	=12	=12	=12
1G	2r	0.r	0.r
.	2B	.	.
2.F	2c	.	.
.	2d	.	.
8EL	.	.	.
8DJ	.	.	.
1C	2.e	.	.
.	8dL	.	.
.	8cJ	.	.
=13	=13	=13	=13
1D	4B	0.r	0.r
.	2A	.	.
.	2d	.	.
1E	.	.	.
.	8cL	.	.
.	8BJ	.	.
.	2c	.	.
1D	2B	.	.
.	[2A	.	.
=14	=14	=14	=14
1F	2A]	0.r	0.r
.	1c	.	.
1C	.	.	.
.	1G	.	.
1C	.	.	.
.	[2A	.	.
=15	=15	=15	=15
1D	2A]	0.r	0.r
.	1F	.	.
1BB-	.	.	.
.	1D	.	.
1GG	.	.	.
.	[2G	.	.
=16	=16	=16	=16
2C	4G]	0.r	0.r
.	8FL	.	.
.	8EJ	.	.
4BB-	4D	.	.
2C	4E	.	.
.	4C	.	.
4E	2c	.	.
2D	.	.	.
.	4B	.	.
2C	4c	.	.
.	2e	.	.
2c	.	.	.
.	4c	.	.
=17	=17	=17	=17
2B-i	2d	0.r	0.r
2.A	4c	.	.
.	4A	.	.
.	4c	.	.
8GL	4d	.	.
8FJ	.	.	.
2G	2B	.	.
2A	2.A	.	.
2AA	.	.	.
.	8GL	.	.
.	8FJ	.	.
=18	=18	=18	=18
2BB-	2G	0.r	0.r
2AA	2A	.	.
2D	4B	.	.
.	2A	.	.
2C	.	.	.
.	2c	.	.
2E	.	.	.
.	2B	.	.
4.D	.	.	.
.	[4d	.	.
8E	.	.	.
=19	=19	=19	=19
4F	2.d]	1r	0.r
4G	.	.	.
2E	.	.	.
.	4c	.	.
2D	4B	4r	.
.	4A	4f	.
2G	2r	4e	.
.	.	4.d	.
2F	1r	.	.
.	.	8eL	.
.	.	8f	.
.	.	8gJ	.
2G	.	4e	.
.	.	4d	.
=20	=20	=20	=20
2B-	0.r	1r	4r
.	.	.	4g
2A	.	.	4f
.	.	.	4.e
1r	.	2G	.
.	.	.	8fL
.	.	.	8g
.	.	.	8aJ
.	.	4.A	4f
.	.	.	2e
.	.	8B	.
1r	.	4c	.
.	.	4d	2a
.	.	2B	.
.	.	.	4g#i
=21	=21	=21	=21
0.r	0.r	2.A	4.a
.	.	.	8b
.	.	.	4cc
.	.	8GL	4dd
.	.	8FJ	.
.	.	2G	2b
.	.	2A	2.a
.	.	4r	.
.	.	4A	8gL
.	.	.	8fJ
.	.	4B	2g
.	.	[4c	.
=22	=22	=22	=22
0.r	0.r	4c]	2a
.	.	8BL	.
.	.	8AJ	.
.	.	4G	4.e
.	.	4A	.
.	.	.	8f
.	.	4B	4g
.	.	2d	4f
.	.	.	2e
.	.	4c	.
.	.	2B	2d
.	.	[2A	2r
=23	=23	=23	=23
0.r	0.r	2A]	2c
.	.	2r	2.f
.	.	2D	.
.	.	.	4f
.	.	2.G	2e
.	.	.	4.d
.	.	4G	.
.	.	.	8cL
.	.	2F	8B
.	.	.	8AJ
.	.	.	[4d
=24	=24	=24	=24
0.r	0.r	2E	4d]
.	.	.	4c#i
.	.	2.D	2d
.	.	.	2r
.	.	4E	.
.	.	2F	2a
.	.	2G	2b
.	.	4.A	2cc
.	.	8B	.
=25	=25	=25	=25
0.r	1r	4c	2a
.	.	2d	.
.	.	.	2.dd
.	.	2f	.
.	1r	.	.
.	.	8eL	8ccL
.	.	8dJ	8bJ
.	.	4e	2cc
.	.	4A	.
.	2B	1r	2dd
.	4.A	.	4cc
.	.	.	[4a
.	8B	.	.
=26	=26	=26	=26
1r	4c	1r	4a]
.	4A	.	4cc
.	4G	.	4b
.	4c	.	2a
1r	4d	2r	.
.	2e	.	4g
.	.	2D	2f
.	2d	.	.
1AA	.	2.A	[1e
.	8cL	.	.
.	8BJ	.	.
.	4.c	.	.
.	.	8GL	.
.	8B	8FJ	.
=27	=27	=27	=27
1C	1G	4E	1e]
.	.	4C	.
.	.	4.E	.
.	.	8F	.
1C	4r	4G	2.e
.	2c	4A	.
.	.	4G	.
.	2A	2c	8dL
.	.	.	8eJ
1r	.	.	4f
.	4c	4A	4e
.	4B	4B	4d
.	[4A	[4c	4e
=28	=28	=28	=28
4r	4A]	4c]	4f
4C	4G	4c	2e
2D	2F	4A	.
.	.	4B	4d
2.C	1E	4.c	2e
.	.	8B	.
.	.	1G	4r
8BB-L	.	.	2g
8AAJ	.	.	.
1GG	4r	.	.
.	2c	.	4e
.	.	2G	2d
.	4B	.	.
=29	=29	=29	=29
2r	4c	2A	4c
.	4A	.	2f
2C	2G	2r	.
.	.	.	4e
2.BB-	2.d	2r	0f
.	.	1D	.
4C	8cL	.	.
.	8BJ	.	.
2D	2A	.	.
2BB-	2B-	2F	.
=30	=30	=30	=30
2D	4.A	4F	2f
.	.	4A	.
.	4.d	.	.
2E	.	8GL	2g
.	.	8FJ	.
.	4c	4G	.
2D	2d	4A	2f
.	.	4B	.
2C	2G	2.c	2.e
2AA	2A	.	.
.	.	8BL	4d
.	.	8AJ	.
2BB-	2D	2G	[2d
=31	=31	=31	=31
1AA	1E	1A	2d]
.	.	.	2c#i
2A	2D	2r	1d
2B-	2r	2G	.
4.c	1r	2A	2r
8B-	.	.	.
2G	.	2B	2g
=32	=32	=32	=32
2r	1r	2c	2a
2G	.	2d	2b
2A	1r	4.c	2.cc
.	.	8B	.
1F	.	2A	.
.	.	.	4b
.	2r	2D	2a
2E	2G	2E	2g
=33	=33	=33	=33
1D	2A	2.F	2f
.	2B	.	2d
.	.	8EL	.
.	.	8FJ	.
2.C	0c	2G	2.e
.	.	2.g	.
4D	.	.	4f
2E	.	.	2g
.	.	4f	.
2F	.	2f	[2a
=34	=34	=34	=34
1G	1B	2d	4a]
.	.	.	8gL
.	.	.	8fJ
.	.	2e	2g
0D	0A	2.f	1a
.	.	4e	.
.	.	2d	2.a
.	.	[2d	.
.	.	.	8gL
.	.	.	8fJ
=35	=35	=35	=35
1A	1r	4d]	1e
.	.	8c#iL	.
.	.	8BJ	.
.	.	2c#i	.
1D	1.A	1d	1d
1F	.	2r	1a
.	4G	[2d	.
.	4F	.	.
=36	=36	=36	=36
1G	1E	2d]	1g
.	.	2c	.
1A	[0D	2.d	2.f
.	.	4e	4g
1r	.	2f	2a
.	.	[2g	2b-i
=37	=37	=37	=37
2r	1D]	4g]	1a
.	.	8fL	.
.	.	8eJ	.
2D	.	2f	.
2E	1.G	2g	2.g
2.C	.	2.e	.
.	.	.	8aL
.	.	.	8bJ
.	.	.	1cc
4BB-	.	4d	.
2AA	2A	2c	.
=38	=38	=38	=38
2GG	2B	2B	2dd
2AA	2c	2A	2cc
2GG	1d	2r	2b
2FF	.	2f	2.a
1GG	2B	2d	.
.	.	.	4g
.	2G	[2d	[2g
=39	=39	=39	=39
1D	1A	4d]	2g]
.	.	4c	.
.	.	2d	2f#i
2.E	1G	2B	2.g
.	.	2e	.
4F	.	.	4a
2G	1r	2d	2b
2C	.	2c	[2cc
=40	=40	=40	=40
1r	1G	1d	2cc]
.	.	.	2b
2.F	1A	1c	1cc
4E	.	.	.
2D	2B	2d	2r
2C	[2c	[2e	2g
=41	=41	=41	=41
2.AA	4c]	4e]	2.a
.	4B	4d	.
.	2A	2.c	.
4BB-	.	.	8gL
.	.	.	8fJ
2C	2G	.	2e
.	.	4B	.
2D	1F	2A	2.d
2BB-	.	2B-	.
.	.	.	4c
2C	2E	[2G	[2c
=42	=42	=42	=42
1GG	1D	2G]	2c]
.	.	2G	2B
[0G	1C	2C	1c
.	.	4G	.
.	.	4A	.
.	2r	2B	[1d
.	2B	2G	.
=43	=43	=43	=43
1G]	2B	1r	1d]
.	2d	.	.
0C	0c	1.G	1r
.	.	.	2r
.	.	[2c	2e
=44	=44	=44	=44
1E	1G	4c]	2e
.	.	4B	.
.	.	2c	2g
[1D	1A	2.d	1.f
.	.	8cL	.
.	.	8BJ	.
2.D]	1A	2.A	.
.	.	.	4e
8CL	.	4B	4d
8BB-J	.	.	.
=45	=45	=45	=45
2AA	1A	2c	2c
2.D	.	2d	1f
.	0B-	2r	.
4C	.	.	.
4BB-	.	4.d	1d
4AA	.	.	.
.	.	8c	.
[1GG	.	4B-i	.
.	.	4A	.
.	.	[2G	[2g
=46	=46	=46	=46
1GG]	1B-i	2G]	4g]
.	.	.	4f
.	.	2G	4e
.	.	.	4d
1AA	1A	2.E	2c
.	.	.	2cc
.	.	4F	.
2GG	2d	2G	2b
2AA	2c	2E	[2a
=47	=47	=47	=47
1E	1B	2r	2a]
.	.	2e	2g
2F	2.A	2d	2f
2C	.	2e	2.e
.	4G	.	.
2D	2F	2A	.
.	.	.	4d
2BB-	2D	2G	[2d
=48	=48	=48	=48
1AA	1E	1A	2d]
.	.	.	2c#i
0Dl	0Dl	0Al	0dl
!!LO:LB:i:g=z
=49||	=49||	=49||	=49||
*>B	*>B	*>B	*>B
*clefF4	*clefGv2	*clefGv2	*clefG2
*k[b-]	*k[]	*k[]	*k[]
*M3/1	*M3/1	*M3/1	*M3/1
*met(O)	*met(O)	*met(O)	*met(O)
!!section: Domine deus
!!!OMD: Domine deus
0.r	0.r	1.d	0.r
.	.	2d	.
.	.	1d	.
=50	=50	=50	=50
0.r	0.r	1f	1.a
.	.	2.f	.
.	.	.	2a
.	.	8eL	.
.	.	8dJ	.
.	.	2c	1a
.	.	2d	.
=51	=51	=51	=51
0.r	0.r	1A	1cc
.	.	2r	2.cc
.	.	2.e	.
.	.	.	8bL
.	.	.	8aJ
.	.	.	2g
.	.	8dL	.
.	.	8eJ	.
.	.	2f	2a
=52	=52	=52	=52
0.r	0.r	2e	2g
.	.	2c	1cc
.	.	1d	.
.	.	.	2.b
.	.	2A	.
.	.	.	4a
.	.	2c	[2a
=53	=53	=53	=53
0.r	0.r	1B	2a]
.	.	.	2g
.	.	2A	2f
.	.	4r	2.e
.	.	4G	.
.	.	4A	.
.	.	2c	8dL
.	.	.	8cJ
.	.	.	2d
.	.	4B	.
=54	=54	=54	=54
0.r	0.r	2A	4r
.	.	.	4c
.	.	4G	4d
.	.	4F	2f
.	.	2G	.
.	.	.	4e
.	.	4r	2d
.	.	4.F	.
.	.	.	2c
.	.	8G	.
.	.	2A	.
.	.	.	2B
.	.	4G	.
=55	=55	=55	=55
0.r	0.r	4A	2A
.	.	2c	.
.	.	.	4.a
.	.	4A	.
.	.	.	16gLL
.	.	.	16aJJ
.	.	4B	4g
.	.	2d	4f
.	.	.	2e
.	.	4c#i	.
.	.	2d	1d
.	.	[2f	.
=56	=56	=56	=56
0.r	0.r	4f]	2r
.	.	4e	.
.	.	2.d	2a
.	.	.	2b
.	.	8cL	.
.	.	8BJ	.
.	.	2.A	1cc
.	.	4B	.
.	.	2c	2a
=57	=57	=57	=57
0.r	0.r	2d	2b
.	.	2e	2cc
.	.	2d	2.dd
.	.	1G	.
.	.	.	4cc
.	.	.	2b
.	.	2d	[2a
=58	=58	=58	=58
0.r	0.r	2c	2a]
.	.	2d	2f
.	.	2B	2.g
.	.	2.c	.
.	.	.	8fL
.	.	.	8gJ
.	.	.	2a
.	.	8BL	.
.	.	8AJ	.
.	.	4B	4g
.	.	4c	[4e
=59	=59	=59	=59
0.r	0.r	2A	4e]
.	.	.	2f
.	.	2B-	.
.	.	.	4d
.	.	2G	4e
.	.	.	2g
.	.	2A	.
.	.	.	4f
.	.	4G	4e
.	.	2c	8dL
.	.	.	8cJ
.	.	.	2d
.	.	4Bn	.
=60	=60	=60	=60
0.r	0.r	4c	2c
.	.	4.e	.
.	.	.	2.g
.	.	8dL	.
.	.	8c	.
.	.	8BJ	.
.	.	2c	.
.	.	.	4f
.	.	2A	2.f
.	.	1G	.
.	.	.	8eL
.	.	.	8dJ
.	.	.	2e
=61	=61	=61	=61
0.r	0.r	2F	3%2fV
.	.	2A	.
.	.	.	[3eZ
.	.	1G	3e]V
.	.	.	3d
.	.	.	3BZ
.	.	2A	3.cV
.	.	2c	6d
.	.	.	3eZ
=62	=62	=62	=62
0.r	0.r	1B	3.dV
.	.	.	3g
.	.	.	12fL
.	.	.	12gJZ
.	.	2A	3%2aV
.	.	2c	.
.	.	.	3gZ
.	.	2r	3aV
.	.	.	3.b
.	.	2d	.
.	.	.	12aL
.	.	.	12bJZ
=63	=63	=63	=63
0.r	0.r	2c	3.ccV
.	.	4d	3.bZ
.	.	4e	.
.	.	2f	3.aV
.	.	2e	3g
.	.	.	6eZ
.	.	4A	6fV
.	.	.	3e
.	.	4c	.
.	.	2B-i	6a
.	.	.	6.g
.	.	.	24fLL
.	.	.	24gJJZ
=64	=64	=64	=64
0.r	0.r	3%2AV	2a
.	.	.	2r
.	.	3AZ	.
.	.	3AV	2e
.	.	3r	.
.	.	.	2f
.	.	3AZ	.
.	.	3.FV	4e
.	.	.	4c
.	.	6G	2d
.	.	3B-Z	.
=65	=65	=65	=65
0.r	0.r	3AV	4c
.	.	.	2f
.	.	3F	.
.	.	3GZ	.
.	.	.	4e
.	.	3FV	1f
.	.	3r	.
.	.	3AZ	.
.	.	3GV	2r
.	.	3%2BZ	.
.	.	.	2g
=66	=66	=66	=66
0.r	0.r	3AV	2a
.	.	3%2dZ	.
.	.	.	2b
.	.	3.cV	0cc
.	.	3A	.
.	.	6FZ	.
.	.	6EV	.
.	.	6F	.
.	.	6E	.
.	.	3A	.
.	.	6FZ	.
=67	=67	=67	=67
0.r	0.r	3%2GV	1b
.	.	[3DZ	.
.	.	3D]V	2.a
.	.	3%2FZ	.
.	.	.	8gL
.	.	.	8fJ
.	.	3%2CV	2e
.	.	.	[2a
.	.	[3FZ	.
=68	=68	=68	=68
0.r	0.r	3F]V	2a]
.	.	3%2cZ	.
.	.	.	2.g
.	.	3BV	.
.	.	.	8f#iL
.	.	3%2AZ	.
.	.	.	8eJ
.	.	.	2f#i
.	.	3%2GV	1g
.	.	3BZ	.
=69	=69	=69	=69
0.r	0.r	3cV	2r
.	.	3%2AZ	.
.	.	.	2cc
.	.	1G	2b
.	.	.	2.dd
.	.	2r	.
.	.	.	4cc
.	.	[2d	2b
=70	=70	=70	=70
0.r	0.r	4d]	2a
.	.	4c	.
.	.	4B	4g
.	.	4c	2a
.	.	4d	.
.	.	4e	4g
.	.	4d	4f
.	.	4B	2g
.	.	4c	.
.	.	2d	4f
.	.	.	2e
.	.	4c#i	.
=71	=71	=71	=71
0.r	0.r	2d	2d
.	.	4r	2f
.	.	2A	.
.	.	.	2e
.	.	4c	.
.	.	4Bn	4d
.	.	4.c	2e
.	.	8B	.
.	.	2A	4c
.	.	.	2B
.	.	4G#i	.
=72	=72	=72	=72
*M2/1	*M2/1	*M2/1	*M2/1
*met(C|)	*met(C|)	*met(C|)	*met(O|)
*	*	*	*rscale:3/2
0r	0r	0A	3%2.A
.	.	.	3B
.	.	.	3c
.	.	.	6B
.	.	.	6c
=73	=73	=73	=73
0r	0r	0B-	3.d
.	.	.	6e
.	.	.	3f
.	.	.	3.g
.	.	.	6f
.	.	.	6e
.	.	.	6d
=74	=74	=74	=74
0r	0r	1.A	3.c
.	.	.	6d
.	.	.	3e
.	.	.	3%2f
.	.	2G	.
.	.	.	3e
=75	=75	=75	=75
0r	0r	3%2AV	3f
.	.	.	3.e
.	.	3F	.
.	.	.	6d
.	.	3G	3%2d
.	.	3%2EZ	.
.	.	.	3c#i
=76	=76	=76	=76
0r	0r	0Dl	0dl
*	*	*	*rscale:1
!!LO:LB:i:g=z
=77||	=77||	=77||	=77||
*>C	*>C	*>C	*>C
*clefF4	*clefGv2	*clefGv2	*clefG2
*k[b-]	*k[]	*k[]	*k[]
*M2/1	*M2/1	*M2/1	*M2/1
*met(O|)	*met(O|)	*met(O|)	*met(O|)
!!section: Domine fili
!!!OMD: Domine fili
0r	1A	0r	0r
.	2A	.	.
.	[2c	.	.
=78	=78	=78	=78
0r	2c]	0r	0r
.	4B	.	.
.	4A	.	.
.	2B	.	.
.	2c	.	.
=79	=79	=79	=79
1D	2d	0r	0r
.	2B	.	.
2D	1A	.	.
[2F	.	.	.
=80	=80	=80	=80
2F]	2r	0r	0r
4E	2A	.	.
4D	.	.	.
2E	2G	.	.
2F	2A	.	.
=81	=81	=81	=81
2G	2B	0r	0r
2E	1c	.	.
1D	.	.	.
.	2B	.	.
=82	=82	=82	=82
2r	2c	0r	0r
2D	1A	.	.
2C	.	.	.
2D	2B	.	.
=83	=83	=83	=83
2E	2c	0r	0r
1F	2A	.	.
.	1G	.	.
2E	.	.	.
=84	=84	=84	=84
1F	1.A	0r	0r
1r	.	.	.
.	2A	.	.
=85	=85	=85	=85
1.D	2.d	0r	0r
.	4c	.	.
.	2B-	.	.
2D	4A	.	.
.	4G	.	.
=86	=86	=86	=86
1.A	1F	0r	0r
.	1c	.	.
2G	.	.	.
=87	=87	=87	=87
2F	1d	0r	0r
4E	.	.	.
4D	.	.	.
[1C	[1e-i	.	.
=88	=88	=88	=88
1C]	2e-]	0r	0r
.	4d	.	.
.	4c	.	.
1D	2B-i	.	.
.	2A	.	.
=89	=89	=89	=89
1E	4G	0r	0r
.	4F	.	.
.	2G	.	.
[1F	1A	.	.
=90	=90	=90	=90
2F]	1D	0r	0r
2G	.	.	.
1A	1r	.	.
=91	=91	=91	=91
1.B-	1.d	0r	0r
2A	2c	.	.
=92	=92	=92	=92
2G	2B	0r	0r
2F	2A	.	.
1E	2G	.	.
.	[2c	.	.
=93	=93	=93	=93
1.A	4c]	0r	0r
.	4B	.	.
.	4A	.	.
.	4G	.	.
.	1F	.	.
4G	.	.	.
4F	.	.	.
=94	=94	=94	=94
2G	2r	0r	0r
2C	2E	.	.
2D	2F	.	.
2BB-	2G	.	.
=95	=95	=95	=95
1AA	2A	0r	0r
.	1c	.	.
2r	.	.	.
2GG	[2B	.	.
=96	=96	=96	=96
2AA	4B]	0r	0r
.	4A	.	.
2C	1A	.	.
1BB-	.	.	.
.	2G	.	.
=97	=97	=97	=97
1AA	1A	0r	0r
1r	2.A	.	.
.	4G	.	.
=98	=98	=98	=98
1A	2.F	0r	0r
.	4E	.	.
2.A	2D	.	.
.	2C	.	.
4G	.	.	.
=99	=99	=99	=99
2.F	2D	0r	0r
.	2A	.	.
4E	.	.	.
2D	2B	.	.
2C	2c	.	.
=100	=100	=100	=100
2D	4B	0r	0r
.	4A	.	.
2F	1d	.	.
1E	.	.	.
.	2c#i	.	.
=101	=101	=101	=101
0D	1d	0r	0r
.	1r	.	.
=102	=102	=102	=102
1r	1.G	0r	0r
1C	.	.	.
.	[2A	.	.
=103	=103	=103	=103
1D	2A]	0r	0r
.	1B	.	.
1E	.	.	.
.	[2c	.	.
=104	=104	=104	=104
[0F	4c]	0r	0r
.	4B	.	.
.	4A	.	.
.	4G	.	.
.	1A	.	.
=105	=105	=105	=105
0F]	2r	0r	0r
.	1A	.	.
.	4G	.	.
.	4F	.	.
=106	=106	=106	=106
1G	4E	0r	0r
.	4D	.	.
.	1d	.	.
1E	.	.	.
.	2c#i	.	.
=107	=107	=107	=107
1D	2.d	0r	0r
.	4c	.	.
2r	2A	.	.
[2D	[2B-	.	.
=108	=108	=108	=108
2D]	2B-]	0r	0r
4C	4A	.	.
4BB-	4G	.	.
1AA	2.F#i	.	.
.	4E	.	.
=109	=109	=109	=109
1GG	1G	0r	0r
1C	1r	.	.
=110	=110	=110	=110
1E	2r	0r	0r
.	1c	.	.
1F	.	.	.
.	[2d	.	.
=111	=111	=111	=111
0D	4d]	0r	0r
.	4c	.	.
.	4B	.	.
.	4A	.	.
.	4B	.	.
.	4A	.	.
.	4G	.	.
.	4F	.	.
=112	=112	=112	=112
1.C	2.E	0r	0r
.	4F	.	.
.	4G	.	.
.	4A	.	.
2D	2B	.	.
=113	=113	=113	=113
2E	2c	0r	0r
2F	1d	.	.
1G	.	.	.
.	[2G	.	.
=114	=114	=114	=114
2C	2G]	0r	0r
2E	2c	.	.
1D	4B	.	.
.	4A	.	.
.	2B	.	.
=115	=115	=115	=115
0C	0c	0r	0r
=116	=116	=116	=116
1r	1r	1r	1r
[1C	[1c	[1e	[1g
=117	=117	=117	=117
1C]	1c]	1e]	1g]
1C	1c	1e	1g
=118	=118	=118	=118
0C	1.c	1e	0g
.	.	1e	.
.	4B	.	.
.	4A	.	.
=119	=119	=119	=119
0C	1.G	0e	1.g
.	2A	.	4f
.	.	.	4e
=120	=120	=120	=120
1G	1B	1r	1d
1C	1c	1e	1g
=121	=121	=121	=121
1.D	1A	1.d	1.f
.	[1d	.	.
2E	.	4c	2g
.	.	4B	.
=122	=122	=122	=122
1F	1d]	1A	1a
1G	1d	1d	1b
=123	=123	=123	=123
1F	1A	2f	2.cc
.	.	1f	.
.	.	.	4b
1A	1c	.	4a
.	.	.	4g
.	.	4e	[2a
.	.	4d	.
=124	=124	=124	=124
0E	0B	2e	2a]
.	.	4d	4g#i
.	.	4c	4f#i
.	.	2B	1g#i
.	.	[2e	.
=125	=125	=125	=125
1.F	0A	2e]	1a
.	.	4d	.
.	.	4c	.
.	.	2d	2f
2E	.	[2c	2g
=126	=126	=126	=126
1D	0r	2c]	2.f
.	.	2B	.
.	.	.	8eL
.	.	.	8dJ
1C	.	[1c	1e
=127	=127	=127	=127
1.AA	1.A	1c]	1r
.	.	1c	1a
[2C	4G	.	.
.	4F	.	.
=128	=128	=128	=128
2C]	1E	1c	1g
4BB-	.	.	.
4AA	.	.	.
2GG	1G	2B	1e
2C	.	[2c	.
=129	=129	=129	=129
1.FF	2F	4c]	1.f
.	.	4B	.
.	1A	4A	.
.	.	4G	.
.	.	[1A	.
2GG	4G	.	4e
.	4F	.	4d
=130	=130	=130	=130
1.AA	1E	2A]	1.c
.	.	2G	.
.	1A	1F	.
2BB-	.	.	2d
=131	=131	=131	=131
1C	1G	1E	1e
1D	2.F	1A	1f
.	4G	.	.
=132	=132	=132	=132
1AA	4A	2.A	1e
.	4B	.	.
.	2.c	.	.
.	.	4G	.
2r	.	2F	1a
.	4B	.	.
2AA	2c	2E	.
=133	=133	=133	=133
2.BB-	2B-	1.D	2g
.	1A	.	1f
4C	.	.	.
1BB-	.	.	.
.	2G	4C	4e
.	.	4D	4d
=134	=134	=134	=134
[0AAl	[0Al	1E	[0cl
.	.	1F	.
=135	=135	=135	=135
0AA]	0A]	0El	0c]
!!LO:LB:i:g=z
=136||	=136||	=136||	=136||
*>D	*>D	*>D	*>D
*clefF4	*clefGv2	*clefGv2	*clefG2
*k[b-]	*k[]	*k[]	*k[]
*M2/1	*M2/1	*M2/1	*M2/1
*met(C|)	*met(C|)	*met(C|)	*met(C|)
!!section: Qui tollis peccata mundi
!!!OMD: Qui tollis peccata mundi
0D	0d	0A	0f
=137	=137	=137	=137
1D	1d	1A	1f
[1D	[1d	1A	[1f
=138	=138	=138	=138
1D]	1d]	1A	0f]
1D	1d	2B	.
.	.	[2A	.
=139	=139	=139	=139
1D	1d	2A]	1f
.	.	1d	.
1D	2A	.	1f
.	[2d	4c	.
.	.	4B	.
=140	=140	=140	=140
0D	2d]	2A	1.f
.	4c	2.F	.
.	4B	.	.
.	2A	.	.
.	.	4G	.
.	2F	4A	4e
.	.	4F	4d
=141	=141	=141	=141
0C	0c	1G	0e
.	.	2E	.
.	.	[2G	.
=142	=142	=142	=142
1G	1B-	2G]	[0d
.	.	4F	.
.	.	4E	.
2D	2A	2F	.
[2G	[2B-i	2G	.
=143	=143	=143	=143
2G]	2B-]	1r	0d]
4F	4A	.	.
4E	4G	.	.
2D	2A	[1F	.
2BB-	2B-i	.	.
=144	=144	=144	=144
0F	0A	1F]	0c
.	.	[1f	.
=145	=145	=145	=145
1F	0A	2f]	1r
.	.	4e	.
.	.	4d	.
1F	.	2c	[1cc
.	.	2d	.
=146	=146	=146	=146
[0C	1G	[0e	1cc]
.	1c	.	1cc
=147	=147	=147	=147
0C]	2.c	1e]	1cc
.	4d	.	.
.	2e	1c	1cc
.	4d	.	.
.	4c	.	.
=148	=148	=148	=148
1F	2d	1r	1.a
.	1c	.	.
1D	.	1d	.
.	2B	.	4g
.	.	.	4f
=149	=149	=149	=149
1.C	1c	1.e	2e
.	.	.	2c
.	[1A	.	[1cc
2BB-	.	2d	.
=150	=150	=150	=150
1.AA	2A]	1.c	2cc]
.	4G	.	2b
.	4F	.	.
.	1E	.	[1a
2GG	.	2B	.
=151	=151	=151	=151
0FF	1F	1A	2a]
.	.	.	2g
.	1A	[1c	[1f
=152	=152	=152	=152
0C	0G	1c]	2f]
.	.	.	4e
.	.	.	4d
.	.	1c	1e
=153	=153	=153	=153
1.D	1F	0A	1.f
.	1F	.	.
4C	.	.	2e
4BB-	.	.	.
=154	=154	=154	=154
2.BB-	2G	1r	2d
.	2A	.	2c
4AA	.	.	.
1BB-	4G	2r	2.d
.	4F	.	.
.	2G	2d	.
.	.	.	4e
=155	=155	=155	=155
1AA	1A	2c	4f
.	.	.	4g
.	.	2A	1f
1BB-	2.D	4G	.
.	.	4F	.
.	.	2G	4e
.	4E	.	4d
=156	=156	=156	=156
2AA	2F	2A	2c
2GG	2G	2B-	1d
1AA	1E	[1A	.
.	.	.	2c#i
=157	=157	=157	=157
1r	0D	2A]	0d
.	.	2G	.
1A	.	2.F	.
.	.	4E	.
=158	=158	=158	=158
1A	1F	2D	0r
.	.	1d	.
1G	1E	.	.
.	.	2c#i	.
=159	=159	=159	=159
1F	1D	1d	1a
[1E	2.G	2r	2g
.	.	2Bn	[2g
.	4A	.	.
=160	=160	=160	=160
2E]	2B	1e	2g]
4D	2c	.	4f
4C	.	.	4e
1D	1A	1d	1f
=161	=161	=161	=161
1E	1G	1B	1g
1G	1r	2r	[1e
.	.	2B	.
=162	=162	=162	=162
0F	0r	4c	2e]
.	.	4B	.
.	.	4A	4d
.	.	4G	4c
.	.	1A	1d
=163	=163	=163	=163
[0E	1.G	1.B	1e
.	.	.	[1g
.	4F	4A	.
.	4E	4G	.
=164	=164	=164	=164
0E]	2G	2B	2g]
.	2C	2c	4f
.	.	.	4e
.	2r	1B	2.g
.	[2G	.	.
.	.	.	4a
=165	=165	=165	=165
0r	4G]	0E	4b
.	4A	.	4cc
.	2c	.	1a
.	1B	.	.
.	.	.	2g#i
=166	=166	=166	=166
[0AA	1.A	[0e	1a
.	.	.	[1cc
.	4G	.	.
.	4F	.	.
=167	=167	=167	=167
1AA]	1E	1e]	1cc]
1AA	1F	1c	1a
=168	=168	=168	=168
0E	2.G	1B	1g
.	4A	.	.
.	2B	[1e	2.g
.	2c	.	.
.	.	.	4f
=169	=169	=169	=169
1E	4B	1e]	2g
.	4A	.	.
.	2c	.	1a
1E	1B	1e	.
.	.	.	2g#i
=170	=170	=170	=170
1F	1A	2c	1a
.	.	2A	.
1G	1r	1d	1b
=171	=171	=171	=171
[0A	0r	2.c	[0cc
.	.	4d	.
.	.	4e	.
.	.	4f	.
.	.	[2e	.
=172	=172	=172	=172
1A]	0r	2e]	1cc]
.	.	4d	.
.	.	4c	.
1G	.	2d	1b
.	.	2B	.
=173	=173	=173	=173
1F	1r	2c	0a
.	.	1A	.
1D	1F	.	.
.	.	[2d	.
=174	=174	=174	=174
0E	1G	2d]	1g
.	.	4c	.
.	.	4B	.
.	1G	4c	1e
.	.	4B	.
.	.	4A	.
.	.	4G	.
=175	=175	=175	=175
0r	1.A	2F	1f
.	.	2D	.
.	.	1F	1a
.	4G	.	.
.	4F	.	.
=176	=176	=176	=176
0r	1G	1E	1b
.	1E	1AA	1cc
=177	=177	=177	=177
1D	2D	1A	1dd
.	2F	.	.
1E	2G	1r	2b
.	2C	.	2cc
=178	=178	=178	=178
1F	1D	1r	1a
[1G	1r	2.E	1g
.	.	4F	.
=179	=179	=179	=179
0G_	0r	4G	0r
.	.	4A	.
.	.	2.B	.
.	.	4c	.
.	.	2d	.
=180	=180	=180	=180
1G]	0r	2e	0r
.	.	2d	.
1G	.	2B	.
.	.	[2e	.
=181	=181	=181	=181
0F	0r	2e]	0r
.	.	4d	.
.	.	4c	.
.	.	1d	.
=182	=182	=182	=182
1E	1G	2.e	1g
.	.	8dL	.
.	.	8cJ	.
2r	2.G	1B	2.g
2E	.	.	.
.	4F	.	4f
=183	=183	=183	=183
2C	2G	1c	4e
.	.	.	4d
2AA	2A	.	2c
1BB-	2F	1r	[1d
.	2D	.	.
=184	=184	=184	=184
0AA	1E	1r	2d]
.	.	.	4c
.	.	.	4B
.	2.F	1A	1c
.	4E	.	.
=185	=185	=185	=185
0GG	1.G	1.B-	0d
.	2A	2A	.
=186	=186	=186	=186
1r	0B-	0G	0r
1GG	.	.	.
=187	=187	=187	=187
1.C	1r	0r	0r
.	1G	.	.
2BB-	.	.	.
=188	=188	=188	=188
0AA	1.c	0r	0r
.	2B-i	.	.
=189	=189	=189	=189
2r	1A	0r	0r
2AA	.	.	.
2.D	2r	.	.
.	2A	.	.
4C	.	.	.
=190	=190	=190	=190
2.BB-	2.d	0r	0r
4AA	4c	.	.
2GG	2B-i	.	.
2D	2A	.	.
=191	=191	=191	=191
2E	2G	1r	0r
1G	2B-i	.	.
.	1A	1D	.
2F#i	.	.	.
=192	=192	=192	=192
1G	1.B-i	1.G	1r
1r	.	.	1d
.	2G	2F	.
=193	=193	=193	=193
0r	0G	1E	1.g
.	.	2r	.
.	.	2E	4f
.	.	.	4e
=194	=194	=194	=194
0r	0r	2.G	1e
.	.	4F	.
.	.	2E	2r
.	.	2D	2f
=195	=195	=195	=195
0r	2r	1C	2.g
.	2E	.	.
.	.	.	4f
.	2.G	1r	2e
.	.	.	2d
.	4F	.	.
=196	=196	=196	=196
0r	2E	0r	2c
.	2D	.	2f
.	2C	.	2e
.	2E	.	[2c
=197	=197	=197	=197
0r	1D	1r	2c]
.	.	.	2B
.	4C	2r	1c
.	4D	.	.
.	4E	2c	.
.	4F	.	.
=198	=198	=198	=198
0r	2G	2B	1r
.	2A	1A	.
.	1F	.	2r
.	.	4G	2cc
.	.	4F	.
=199	=199	=199	=199
1r	0r	2G	2b
.	.	2F	1a
1D	.	2A	.
.	.	2B	4g
.	.	.	4f
=200	=200	=200	=200
1C	2r	1c	1e
.	2c	.	.
1D	2B	1r	2d
.	[2A	.	[2f
=201	=201	=201	=201
1D	2A]	0r	2f]
.	4G	.	4e
.	4F	.	4d
2AA	2E	.	2c
[2BB-	2D	.	2d
=202	=202	=202	=202
4BB-]	2d	2r	2.f
4C	.	.	.
2D	1d	2A	.
.	.	.	4g
1AA	.	2.A	1e
.	2c#i	.	.
.	.	8GL	.
.	.	8AJ	.
=203	=203	=203	=203
2.D	1d	1B	1d
4E	.	.	.
2F	1r	2A	1r
2D	.	[2d	.
=204	=204	=204	=204
1E	1G	2d]	2r
.	.	2c	1g
1D	1A	2.d	.
.	.	.	2f
.	.	4c	.
=205	=205	=205	=205
1GG	1G	4B	1g
.	.	4A	.
.	.	1G	.
1AA	2r	.	2.c
.	[2c	2F#i	.
.	.	.	4B
=206	=206	=206	=206
1GG	2c]	1G	1d
.	2B	.	.
2r	1c	1A	1c
[2C	.	.	.
=207	=207	=207	=207
2C]	1d	0r	2r
2BBni	.	.	1f
1C	1c	.	.
.	.	.	2e
=208	=208	=208	=208
1D	0r	2r	1f
.	.	1f	.
1C	.	.	1g
.	.	2e	.
=209	=209	=209	=209
2r	0r	1f	1a
1F	.	.	.
.	.	1g	1r
2E	.	.	.
=210	=210	=210	=210
1F	0r	2f	0r
.	.	1f	.
1G	.	.	.
.	.	2e	.
=211	=211	=211	=211
1.F	0r	2f	0r
.	.	4e	.
.	.	4d	.
.	.	2c	.
4E	.	2d	.
4D	.	.	.
=212	=212	=212	=212
1C	0r	2e	0r
.	.	1c	.
1D	.	.	.
.	.	2B	.
=213	=213	=213	=213
2.C	2r	2A	0r
.	2.E	2G	.
4BB-	.	.	.
2C	.	1r	.
.	8DL	.	.
.	8EJ	.	.
2D	2F	.	.
=214	=214	=214	=214
2AA	2E	0r	0r
2C	1A	.	.
1BB-	.	.	.
.	2G	.	.
=215	=215	=215	=215
2AA	1A	0r	0r
1D	.	.	.
.	2B-i	.	.
2C	2A	.	.
=216	=216	=216	=216
1D	4B-i	0r	0r
.	4A	.	.
.	4G	.	.
.	4F	.	.
1C	2E	.	.
.	[2A	.	.
=217	=217	=217	=217
2BB-	4A]	0r	0r
.	4G	.	.
2C	1G	.	.
1AA	.	.	.
.	2F#i	.	.
=218	=218	=218	=218
0GG	0G	1B	1d
.	.	1B	1d
=219	=219	=219	=219
0r	0r	1A	1f
.	.	1d	1f
=220	=220	=220	=220
0r	0r	2B	1g
.	.	1c	.
.	.	.	1a
.	.	4B	.
.	.	4A	.
=221	=221	=221	=221
0r	0r	2G	1b
.	.	2.d	.
.	.	.	2a
.	.	4e	.
.	.	2f	[2dd
=222	=222	=222	=222
0r	0r	1e	2dd]
.	.	.	2cc
.	.	2d	2b
.	.	[2e	[2cc
=223	=223	=223	=223
0r	0r	4e]	4cc]
.	.	4d	4b
.	.	2c	1a
.	.	1B	.
.	.	.	2g
=224	=224	=224	=224
0r	0r	1A	2f
.	.	.	1e
.	.	2.c	.
.	.	.	2c
.	.	4A	.
=225	=225	=225	=225
0r	0r	2B	2d
.	.	2A	2f
.	.	2G	2e
.	.	2A	2f
=226	=226	=226	=226
0r	0r	2E	2g
.	.	2G	2e
.	.	1F	4d
.	.	.	4c
.	.	.	2d
=227	=227	=227	=227
0r	0r	1E	1e
.	.	1r	1r
=228	=228	=228	=228
0C	0c	0e	0g
=229	=229	=229	=229
0F	1A	1c	0a
.	[1A	[1d	.
=230	=230	=230	=230
0D	2A]	2d]	0f
.	2G	4c	.
.	.	4B	.
.	1F	2A	.
.	.	2B	.
=231	=231	=231	=231
0Cl	0Gl	0cl	0el
!!LO:LB:i:g=z
=232||	=232||	=232||	=232||
*>E	*>E	*>E	*>E
*clefF4	*clefGv2	*clefGv2	*clefG2
*k[b-]	*k[]	*k[]	*k[]
*M3/1	*M3/1	*M3/1	*M3/1
*met(O/3)	*met(O/3)	*met(O/3)	*met(O/3)
!!section: Cum sancto spiritu
!!!OMD: Cum sancto spiritu
!!LO:TX:Z=8:X=-40:t=O/3 mensuration
0C	0c	0e	0g
1C	1c	1e	1g
=233	=233	=233	=233
1C	1G	1e	1g
1C	1c	1e	1g
1C	1c	1e	1g
=234	=234	=234	=234
0.GG	1.B	0.d	1.g
.	2c	.	2a
.	[1d	.	1b
=235	=235	=235	=235
[0.D	2d]	0f	1a
.	2c	.	.
.	2.d	.	1.dd
.	4c	.	.
.	1A	1F	.
.	.	.	2cc
=236	=236	=236	=236
0D]	1A	1.F	1.a
.	1d	.	.
.	.	4E	2b
.	.	4F	.
1C	1e	2G	1cc
.	.	2A	.
=237	=237	=237	=237
1G	1.d	2B	1b
.	.	2G	.
1D	.	1.d	1.a
.	2c	.	.
[1E	1B	.	.
.	.	2B	2g
=238	=238	=238	=238
1E]	1G	1c	1.g
0D	0A	0d	.
.	.	.	4f#i
.	.	.	4e
.	.	.	1f#i
=239	=239	=239	=239
1r	1.G	1.B	0.g
1G	.	.	.
.	2A	2A	.
1E	1B	[1G	.
=240	=240	=240	=240
1C	1c	2G]	1e
.	.	2A	.
0D	1A	1.F	1f
.	1B-	.	1d
.	.	2E	.
=241	=241	=241	=241
1C	0c	1G	0.e
1r	.	1E	.
1AA	1c	[1e	.
=242	=242	=242	=242
1.C	0G	1e]	1r
.	.	1e	1r
2BB-	.	.	.
1AA	1A	1c	1e
=243	=243	=243	=243
0GG	0B-	1d	1.g
.	.	1D	.
.	.	.	2f
1GG	1B-i	1G	2e
.	.	.	2d
=244	=244	=244	=244
1AA	0A	1E	0c
1FF	.	1F	.
[1C	1A	2.E	[1e
.	.	4F	.
=245	=245	=245	=245
0.C]	1G	[0.G	1e]
.	1.E	.	0g
.	2F	.	.
=246	=246	=246	=246
1.C	1G	1G]	1.e
.	1A	1.c	.
2D	.	.	2f
1E	1G	.	1g
.	.	2B	.
=247	=247	=247	=247
1F	1.c	2A	1.a
.	.	2G	.
1C	.	0A	.
.	2B	.	2g
[1D	2A	.	[1f
.	2G	.	.
=248	=248	=248	=248
2D]	0A	1d	2f]
2C	.	.	2e
1AA	.	1c	1.e
[1BB-	[1D	1B-i	.
.	.	.	2d
=249	=249	=249	=249
1BB-]	1D]	1G	1.d
0AA	0E	0A	.
.	.	.	1c#i
.	.	.	4B
.	.	.	4c#i
=250	=250	=250	=250
0.Dl	0.Dl	0.Al	0.dl
==	==	==	==
*-	*-	*-	*-
!!!RDF**kern: l=long note in original notation
!!!RDF**kern: i=editorial accidental
!!!RDF**kern: V=start of tuplet marker
!!!RDF**kern: Z=end of tuplet marker
!!!ENC:	Joel Chapman 2013/09/04
!!!END:	2013/09/04/
!!!EED:	Jesse Rodin
!!!EEV:	2014/01/04/
!!!ONB:	Translated from MusicXML and edited on 2014/01/04/ by Craig Sapp
!!muse2ps: T^@{OPR}^u^@{ONM}{. }@{OTL}^C^@{COM}^i2I150v85,85,85,150c140
